X: 6
T: Scatter The Mud
R: jig
M: 6/8
L: 1/8
K: Ador
Bd|eAA BAG|EAA ABd|eAA BAB|dBG GB/c/d|
eAA BAG|EAA AGE|GAB d2e|dBG A:|
ce|~a3 g2e|dBG AGE|~a3 g2e|dBd ~g3|
~a3 g2e|dBG AGE| GAB d2e|dBG A:|


Tune 728	Setting 728

